X: 12978
T: Field Of Oats, The
R: reel
M: 4/4
K: Eminor
(BA)|GEEF G2(EF)|G2(FG) AcBA|GEEF G2(ef)|gfed B2BA|
GEEF G2(EF)|G2(FG) AcBA|GFEF GABa|gefd e2ef||
g2bg f2af|e2fe Bdef|gabg fgaf|gfed e2(ef)|
g2bg f2af|e2fe Bdef|gabg f2af|gfed edBA||

